X:1
T:The Maid of Tottenham
M:6/8
L:1/8
K:G
 D| G2 G G2 G| G2 GG-A B| A2 G B2 A| G3- G2 B| c2 c c2 A| B2 c d2 B|\
 G2 G F2 E| D3- D2 D| c2 A F2 D| B3 d2 B| G2 G F2 E| D3 F2 F| G2 G F2 E|\
 D/2 D3/2 C B,2 D| E3/2 E/2 A G/2 G3/2 F| G3- G2||
